X: 10
T: Inventio 10
C: Johann Sebastian Bach
%%abc-version 2.0
%%abcx-abcm2ps-target-version 5.9.1 (29 Sep 2008)
%%abc-creator hum2abc beta
%%abcx-conversion-date 2021/01/28 10:10:55
%%abc-copyright Copyright 1994, David Huron
%%abc-edited-by David Huron
%%abcx-initial-encoding-date 1986 November
%%gracespace 0 6 6
%%humdrum-veritas 2645387794
%%humdrum-veritas-data 1601401527
%%linebreak <none>
%%barnumbers 0
L: 1/8
M: 9/8
N: Derived from inven10.krn
Q: 3/8=92
%%staves {1 2}
V: 1 clef=treble
V: 2 clef=bass
K: G
[V:1] G B d B G d B G g | 
[V:2] z3z3z3 | 
[V:1] !mordent!f2d a f d a f d | 
[V:2] D, F, A, F, D, A, F, D, C | 
[V:1] g d B =f d B f d B | 
[V:2] !mordent!B,2G, D B, G, D B, G, | 
[V:1] e c A F A c e d c | 
[V:2] C E C A, C A, F, G, A, | 
[V:1] d B G E G B d c B | 
[V:2] B, D B, G, B, G, E, F, G, | 
[V:1] c A F D F A c B A | 
[V:2] A, C A, F, A, F, D, E, F, | 
[V:1] !uppermordent!B c d e B g e B g | 
[V:2] !uppermordent!G,2>-G,2 F, E, D, E, ^C, | 
[V:1] A B ^c d A f d A f | 
[V:2] !uppermordent!F,2>-F,2 E, D, ^C, D, B,, | 
[V:1] !uppermordent!G2>-G2 A G F G E | 
[V:2] E, F, G, A, E, ^C A, E, C | 
[V:1] F G F E F D A B c | 
[V:2] !uppermordent!D2>-D2 D, E, F, E, D, | 
[V:1] !uppermordent!B c B A B G e f g | 
[V:2] !uppermordent!G,2>-G,2 E, F, G, F, E, | 
[V:1] !uppermordent!^c d c B c A g a b | 
[V:2] !uppermordent!A,2>-A,2 G, F, E, D, ^C, | 
[V:1] a g f e f d A d ^c | 
[V:2] D, E, F, G, A, B,A,2A,, | 
[V:1] !uppermordent!d3z3z3 | 
[V:2] D, F, A, F, D, A, F, D, D | 
[V:1] A ^c e c A e c A g | 
[V:2] !mordent!^C3A,3z3 | 
[V:1] !mordent!f3d3z3 | 
[V:2] D, F, A, F, D, A, F, D, C | 
[V:1] G B d B G d B G =f | 
[V:2] !mordent!B,3G,3z3 | 
[V:1] e c A a e c A B c | 
[V:2] !uppermordent!C,2>-C,2 D, E, F,, G,, A,, | 
[V:1] d B G g d B G A B | 
[V:2] !uppermordent!B,,2>-B,,2 C, D, E,, F,, G,, | 
[V:1] !mordent!c6-c3- | 
[V:2] A,, C, E, A, E, C, A,, B,, C, | 
[V:1] c6-c3 | 
[V:2] D, F, A, D A, F, D, E, F, | 
[V:1] !mordent!B6-B3- | 
[V:2] G, B, D G D B, G, A, B, | 
[V:1] B6-B3- | 
[V:2] E, G, B, E B, G, E, F, G, | 
[V:1] B e d c d B A B G | 
[V:2] !mordent!C,6-C,3- | 
[V:1] A c B A B G F G E | 
[V:2] C,6-C,3- | 
[V:1] !mordent!F2D!uppermordent!A2F!uppermordent!d2F | 
[V:2] C, D, F, A, F, D, C, B,, A,, | 
[V:1] G B d B G d B G g | 
[V:2] B,, G,, B,, D, B,, G,, D, B,, G,, | 
[V:1] d f a f d a f d c' | 
[V:2] F,, D,, F,, A,, F,, D,, A,, F,, D,, | 
[V:1] b a g f g a d g f | 
[V:2] G,, A,, B,, A,, B,, C, B,, C, D, | 
[V:1] g f e d c B A B c | 
[V:2] E,,3-E,,2E, F, E, D, | 
[V:1] B A G F G A D G F | 
[V:2] !uppermordent!G,2B,, E, D, C,!uppermordent!D,2D,, | 
[V:1] G D B,2<G,2z3 |]  
[V:2] G,,2>-G,,2 B,, D,G,3 |]  


